(1002)
(T1 D=2 CR=0 - ZMIN=2.5 - fresa con punta plana)
G90 G94
G17
G21
G28 G91 Z0
G90

(2D Cajeras2)
T1
S9000 M3
G17 G90 G94
G54
M8
G0 X39.881 Y39.515
Z22
G0 Z12
G1 Z9.5 F100
G3 X40.121 Y37.597 Z9.394 I0.12 J-0.959
X39.881 Y39.515 Z9.288 I-0.12 J0.959
X40.121 Y37.597 Z9.182 I0.12 J-0.959
X39.881 Y39.515 Z9.076 I-0.12 J0.959
X40.121 Y37.597 Z8.97 I0.12 J-0.959
X39.881 Y39.515 Z8.864 I-0.12 J0.959
X40.121 Y37.597 Z8.758 I0.12 J-0.959
X39.881 Y39.515 Z8.651 I-0.12 J0.959
X40.121 Y37.597 Z8.545 I0.12 J-0.959
X39.881 Y39.515 Z8.439 I-0.12 J0.959
X40.121 Y37.597 Z8.333 I0.12 J-0.959
X39.881 Y39.515 Z8.227 I-0.12 J0.959
X40.121 Y37.597 Z8.121 I0.12 J-0.959
X39.881 Y39.515 Z8.015 I-0.12 J0.959
X40.121 Y37.597 Z7.909 I0.12 J-0.959
X39.881 Y39.515 Z7.803 I-0.12 J0.959
X40.121 Y37.597 Z7.697 I0.12 J-0.959
X39.881 Y39.515 Z7.591 I-0.12 J0.959
X40.121 Y37.597 Z7.485 I0.12 J-0.959
X39.881 Y39.515 Z7.379 I-0.12 J0.959
X40.121 Y37.597 Z7.273 I0.12 J-0.959
X39.881 Y39.515 Z7.167 I-0.12 J0.959
X40.121 Y37.597 Z7.061 I0.12 J-0.959
X39.881 Y39.515 Z6.954 I-0.12 J0.959
X40.121 Y37.597 Z6.848 I0.12 J-0.959
X39.881 Y39.515 Z6.742 I-0.12 J0.959
X40.121 Y37.597 Z6.636 I0.12 J-0.959
X39.881 Y39.515 Z6.53 I-0.12 J0.959
X40.121 Y37.597 Z6.424 I0.12 J-0.959
X39.881 Y39.515 Z6.318 I-0.12 J0.959
X40.121 Y37.597 Z6.212 I0.12 J-0.959
X39.881 Y39.515 Z6.106 I-0.12 J0.959
X40.121 Y37.597 Z6 I0.12 J-0.959
X39.881 Y39.515 Z5.894 I-0.12 J0.959
X40.121 Y37.597 Z5.788 I0.12 J-0.959
X39.881 Y39.515 Z5.682 I-0.12 J0.959
X40.121 Y37.597 Z5.576 I0.12 J-0.959
X40.679 Y39.245 Z5.5 I-0.12 J0.959
G2 X40.082 Y40.671 I1.403 J1.426 F100
G1 X40.081 Y46.588
G2 X42.08 Y48.588 I2 J0
G1 X52.171 Y48.59
Y48.82
X39.032 Y48.817
X39.037 Y27.817
X40.084
X40.083 Y36.441
G2 X42.082 Y38.442 I2 J0
G1 X50.519 Y38.443
Y38.673
X42.082 Y38.671
G2 X40.679 Y39.245 I0 J2
X40.082 Y40.671 Z5.473 I1.403 J1.426 F100
G1 X40.081 Y46.588 Z5.37
G2 X42.08 Y48.588 Z5.316 I2 J0
G1 X52.171 Y48.59 Z5.141
Y48.82 Z5.137
X39.032 Y48.817 Z4.909
X39.037 Y27.817 Z4.545
X40.084 Z4.527
X40.083 Y36.441 Z4.378
G2 X42.082 Y38.442 Z4.323 I2 J0
G1 X50.519 Y38.443 Z4.177
Y38.673 Z4.173
X42.082 Y38.671 Z4.027
G2 X40.679 Y39.245 Z4 I0 J2
X40.082 Y40.671 I1.403 J1.426 F100
G1 X40.081 Y46.588
G2 X42.08 Y48.588 I2 J0
G1 X52.171 Y48.59
Y48.82
X39.032 Y48.817
X39.037 Y27.817
X40.084
X40.083 Y36.441
G2 X42.082 Y38.442 I2 J0
G1 X50.519 Y38.443
Y38.673
X42.082 Y38.671
G2 X40.679 Y39.245 I0 J2
X40.082 Y40.671 Z3.973 I1.403 J1.426 F100
G1 X40.081 Y46.588 Z3.87
G2 X42.08 Y48.588 Z3.816 I2 J0
G1 X52.171 Y48.59 Z3.641
Y48.82 Z3.637
X39.032 Y48.817 Z3.409
X39.037 Y27.817 Z3.045
X40.084 Z3.027
X40.083 Y36.441 Z2.878
G2 X42.082 Y38.442 Z2.823 I2 J0
G1 X50.519 Y38.443 Z2.677
Y38.673 Z2.673
X42.082 Y38.671 Z2.527
G2 X40.679 Y39.245 Z2.5 I0 J2
X40.082 Y40.671 I1.403 J1.426 F100
G1 X40.081 Y46.588
G2 X42.08 Y48.588 I2 J0
G1 X52.171 Y48.59
Y48.82
X39.032 Y48.817
X39.037 Y27.817
X40.084
X40.083 Y36.441
G2 X42.082 Y38.442 I2 J0
G1 X50.519 Y38.443
Y38.673
X42.082 Y38.671
G2 X40.679 Y39.245 I0 J2
G1 X40.634 Y39.28 Z2.511
X40.582 Y39.305 Z2.523
X40.536 Y39.319 Z2.555
X40.487 Y39.324 Z2.588
X40.423 Y39.318 Z2.685
X40.4 Y39.313 Z2.8
G0 Z12
X16.969 Y39.85
G1 Z9.5 F100
G3 X16.369 Y38.02 Z9.394 I-0.3 J-0.915
X16.969 Y39.85 Z9.289 I0.3 J0.915
X16.369 Y38.02 Z9.183 I-0.3 J-0.915
X16.969 Y39.85 Z9.077 I0.3 J0.915
X16.369 Y38.02 Z8.972 I-0.3 J-0.915
X16.969 Y39.85 Z8.866 I0.3 J0.915
X16.369 Y38.02 Z8.76 I-0.3 J-0.915
X16.969 Y39.85 Z8.655 I0.3 J0.915
X16.369 Y38.02 Z8.549 I-0.3 J-0.915
X16.969 Y39.85 Z8.443 I0.3 J0.915
X16.369 Y38.02 Z8.338 I-0.3 J-0.915
X16.969 Y39.85 Z8.232 I0.3 J0.915
X16.369 Y38.02 Z8.126 I-0.3 J-0.915
X16.969 Y39.85 Z8.021 I0.3 J0.915
X16.369 Y38.02 Z7.915 I-0.3 J-0.915
X16.969 Y39.85 Z7.809 I0.3 J0.915
X16.369 Y38.02 Z7.704 I-0.3 J-0.915
X16.969 Y39.85 Z7.598 I0.3 J0.915
X16.369 Y38.02 Z7.492 I-0.3 J-0.915
X16.969 Y39.85 Z7.387 I0.3 J0.915
X16.369 Y38.02 Z7.281 I-0.3 J-0.915
X16.969 Y39.85 Z7.175 I0.3 J0.915
X16.369 Y38.02 Z7.07 I-0.3 J-0.915
X16.969 Y39.85 Z6.964 I0.3 J0.915
X16.369 Y38.02 Z6.858 I-0.3 J-0.915
X16.969 Y39.85 Z6.752 I0.3 J0.915
X16.369 Y38.02 Z6.647 I-0.3 J-0.915
X16.969 Y39.85 Z6.541 I0.3 J0.915
X16.369 Y38.02 Z6.435 I-0.3 J-0.915
X16.969 Y39.85 Z6.33 I0.3 J0.915
X16.369 Y38.02 Z6.224 I-0.3 J-0.915
X16.969 Y39.85 Z6.118 I0.3 J0.915
X16.369 Y38.02 Z6.013 I-0.3 J-0.915
X16.969 Y39.85 Z5.907 I0.3 J0.915
X16.369 Y38.02 Z5.801 I-0.3 J-0.915
X16.969 Y39.85 Z5.696 I0.3 J0.915
X16.369 Y38.02 Z5.59 I-0.3 J-0.915
X17.346 Y39.62 Z5.5 I0.3 J0.915
G2 X16.753 Y41.041 I1.407 J1.422 F100
G1 X16.752 Y46.583
G2 X18.751 Y48.584 I2 J0
G1 X30.241 Y48.586
X30.24 Y48.815
X15.704 Y48.812
X15.708 Y27.812
X30.722 Y27.815
Y28.027
X18.756 Y28.025
G2 X16.755 Y30.025 I0 J2
G1 X16.754 Y36.829
G2 X18.753 Y38.829 I2 J0
G1 X29.305 Y38.831
Y39.044
X18.753 Y39.041
G2 X17.346 Y39.62 I0 J2
X16.753 Y41.041 Z5.48 I1.407 J1.422 F100
G1 X16.752 Y46.583 Z5.411
G2 X18.751 Y48.584 Z5.372 I2 J0
G1 X30.241 Y48.586 Z5.23
X30.24 Y48.815 Z5.227
X15.704 Y48.812 Z5.046
X15.708 Y27.812 Z4.785
X30.722 Y27.815 Z4.598
Y28.027 Z4.596
X18.756 Y28.025 Z4.447
G2 X16.755 Y30.025 Z4.408 I0 J2
G1 X16.754 Y36.829 Z4.323
G2 X18.753 Y38.829 Z4.284 I2 J0
G1 X29.305 Y38.831 Z4.153
Y39.044 Z4.151
X18.753 Y39.041 Z4.019
G2 X17.346 Y39.62 Z4 I0 J2
X16.753 Y41.041 I1.407 J1.422 F100
G1 X16.752 Y46.583
G2 X18.751 Y48.584 I2 J0
G1 X30.241 Y48.586
X30.24 Y48.815
X15.704 Y48.812
X15.708 Y27.812
X30.722 Y27.815
Y28.027
X18.756 Y28.025
G2 X16.755 Y30.025 I0 J2
G1 X16.754 Y36.829
G2 X18.753 Y38.829 I2 J0
G1 X29.305 Y38.831
Y39.044
X18.753 Y39.041
G2 X17.346 Y39.62 I0 J2
X16.753 Y41.041 Z3.98 I1.407 J1.422 F100
G1 X16.752 Y46.583 Z3.911
G2 X18.751 Y48.584 Z3.872 I2 J0
G1 X30.241 Y48.586 Z3.73
X30.24 Y48.815 Z3.727
X15.704 Y48.812 Z3.546
X15.708 Y27.812 Z3.285
X30.722 Y27.815 Z3.098
Y28.027 Z3.096
X18.756 Y28.025 Z2.947
G2 X16.755 Y30.025 Z2.908 I0 J2
G1 X16.754 Y36.829 Z2.823
G2 X18.753 Y38.829 Z2.784 I2 J0
G1 X29.305 Y38.831 Z2.653
Y39.044 Z2.651
X18.753 Y39.041 Z2.519
G2 X17.346 Y39.62 Z2.5 I0 J2
X16.753 Y41.041 I1.407 J1.422 F100
G1 X16.752 Y46.583
G2 X18.751 Y48.584 I2 J0
G1 X30.241 Y48.586
X30.24 Y48.815
X15.704 Y48.812
X15.708 Y27.812
X30.722 Y27.815
Y28.027
X18.756 Y28.025
G2 X16.755 Y30.025 I0 J2
G1 X16.754 Y36.829
G2 X18.753 Y38.829 I2 J0
G1 X29.305 Y38.831
Y39.044
X18.753 Y39.041
G2 X17.346 Y39.62 I0 J2
G1 X17.301 Y39.655 Z2.511
X17.25 Y39.68 Z2.523
X17.203 Y39.693 Z2.555
X17.155 Y39.699 Z2.588
X17.09 Y39.694 Z2.685
X17.068 Y39.688 Z2.8
G0 Z12
X61.623 Y27.822
G1 Z9.5 F100
X67.773 Y27.823 Z9.366
X69.837 Y27.915 Z9.32
X71.703 Y28.277 Z9.279
X73.189 Y28.9 Z9.244
X74.467 Y29.829 Z9.209
X75.105 Y30.573 Z9.188
X75.715 Y31.433 Z9.165
X76.195 Y32.381 Z9.141
X76.595 Y33.368 Z9.118
X77.124 Y35.68 Z9.066
X77.272 Y38.091 Z9.013
X77.117 Y40.8 Z8.954
X76.548 Y43.36 Z8.897
X75.749 Y45.129 Z8.854
X74.584 Y46.689 Z8.812
X73.97 Y47.239 Z8.794
X73.292 Y47.736 Z8.775
X72.54 Y48.112 Z8.757
X71.771 Y48.407 Z8.739
X69.737 Y48.747 Z8.694
X67.506 Y48.823 Z8.645
X60.315 Y48.821 Z8.488
X60.319 Y27.821 Z8.029
X67.773 Y27.823 Z7.866
X69.837 Y27.915 Z7.82
X71.703 Y28.277 Z7.779
X73.189 Y28.9 Z7.744
X74.467 Y29.829 Z7.709
X75.105 Y30.573 Z7.688
X75.715 Y31.433 Z7.665
X76.195 Y32.381 Z7.641
X76.595 Y33.368 Z7.618
X77.124 Y35.68 Z7.566
X77.272 Y38.091 Z7.513
X77.117 Y40.8 Z7.454
X76.548 Y43.36 Z7.397
X75.749 Y45.129 Z7.354
X74.584 Y46.689 Z7.312
X73.97 Y47.239 Z7.294
X73.292 Y47.736 Z7.275
X72.54 Y48.112 Z7.257
X71.771 Y48.407 Z7.239
X69.737 Y48.747 Z7.194
X67.506 Y48.823 Z7.145
X60.315 Y48.821 Z6.988
X60.319 Y27.821 Z6.529
X67.773 Y27.823 Z6.366
X69.837 Y27.915 Z6.32
X71.703 Y28.277 Z6.279
X73.189 Y28.9 Z6.244
X74.467 Y29.829 Z6.209
X75.105 Y30.573 Z6.188
X75.715 Y31.433 Z6.165
X76.195 Y32.381 Z6.141
X76.595 Y33.368 Z6.118
X77.124 Y35.68 Z6.066
X77.272 Y38.091 Z6.013
X77.117 Y40.8 Z5.954
X76.548 Y43.36 Z5.897
X75.749 Y45.129 Z5.854
X74.584 Y46.689 Z5.812
X73.97 Y47.239 Z5.794
X73.292 Y47.736 Z5.775
X72.54 Y48.112 Z5.757
X71.771 Y48.407 Z5.739
X69.737 Y48.747 Z5.694
X67.506 Y48.823 Z5.645
X60.878 Y48.821 Z5.5
X60.315 F100
X60.319 Y27.821
X67.773 Y27.823
X69.837 Y27.915
X71.703 Y28.277
X73.189 Y28.9
X74.467 Y29.829
X75.105 Y30.573
X75.715 Y31.433
X76.195 Y32.381
X76.595 Y33.368
X77.124 Y35.68
X77.272 Y38.091
X77.117 Y40.8
X76.548 Y43.36
X75.749 Y45.129
X74.584 Y46.689
X73.97 Y47.239
X73.292 Y47.736
X72.54 Y48.112
X71.771 Y48.407
X69.737 Y48.747
X67.506 Y48.823
X60.878 Y48.821
G3 X60.718 Y48.501 I0 J-0.2
G1 X61.351 Y47.66
G3 X61.679 Y47.672 I0.16 J0.12
G2 X63.363 Y48.593 I1.684 J-1.079
G1 X65.631
X65.657
X67.735 Y48.566
X67.912 Y48.556
X69.978 Y48.345
G2 X70.421 Y48.248 I-0.203 J-1.99
G1 X71.671 Y47.822
G2 X72.162 Y47.575 I-0.646 J-1.893
G1 X73.248 Y46.825
G2 X73.693 Y46.403 I-1.136 J-1.646
G1 X74.56 Y45.283
G2 X74.812 Y44.857 I-1.582 J-1.224
G1 X75.378 Y43.556
G2 X75.509 Y43.134 I-1.834 J-0.798
G1 X75.931 Y40.93
G2 X75.965 Y40.634 I-1.964 J-0.376
G1 X76.055 Y38.387
Y38.226
X75.961 Y35.917
G2 X75.93 Y35.637 I-1.998 J0.081
G1 X75.514 Y33.367
G2 X75.411 Y33.004 I-1.967 J0.361
G1 X74.907 Y31.708
G2 X74.657 Y31.251 I-1.864 J0.724
G1 X73.839 Y30.134
G2 X73.348 Y29.66 I-1.614 J1.181
G1 X72.395 Y29.013
G2 X71.954 Y28.788 I-1.123 J1.655
G1 X70.87 Y28.394
G2 X70.453 Y28.292 I-0.683 J1.88
G1 X68.935 Y28.088
X68.825 Y28.077
X68.716 Y28.071
X67.182 Y28.035
X67.136
X63.367 Y28.034
G2 X61.366 Y30.034 I0 J2
G1 X61.363 Y46.592
G2 X61.679 Y47.672 I2 J0
G1 X61.7 Y47.718
X61.708 Y47.768
X61.703 Y47.818
X61.613 Y48.17
X61.607 Y48.223
X61.617 Y48.276
X61.641 Y48.323
X61.678 Y48.362
X61.725 Y48.388
G2 X63.663 Y48.729 I1.827 J-4.706
G3 X65.631 Y48.708 I1.951 J88.615
G2 X69.448 Y48.557 I0.009 J-48.273
X73.089 Y47.404 I-0.668 J-8.437
X75.435 Y44.636 I-2.821 J-4.769
X76.461 Y41.155 I-20.499 J-7.935
G1 X76.465 Y41.111
X76.459 Y41.066
X76.442 Y41.024
X76.417 Y40.988
X76.383 Y40.958
X76.051 Y40.724
X76.015 Y40.692
X75.988 Y40.652
X75.972 Y40.606
X75.968 Y40.558
X76.055 Y38.387 Z5.424 F100
Y38.226 Z5.418
X75.961 Y35.917 Z5.338
G2 X75.93 Y35.637 Z5.328 I-1.998 J0.081
G1 X75.514 Y33.367 Z5.247
G2 X75.411 Y33.004 Z5.234 I-1.967 J0.361
G1 X74.907 Y31.708 Z5.186
G2 X74.657 Y31.251 Z5.167 I-1.864 J0.724
G1 X73.839 Y30.134 Z5.119
G2 X73.348 Y29.66 Z5.095 I-1.614 J1.181
G1 X72.395 Y29.013 Z5.055
G2 X71.954 Y28.788 Z5.038 I-1.123 J1.655
G1 X70.87 Y28.394 Z4.997
G2 X70.453 Y28.292 Z4.982 I-0.683 J1.88
G1 X68.935 Y28.088 Z4.929
X68.825 Y28.077 Z4.925
X68.716 Y28.071 Z4.921
X67.182 Y28.035 Z4.867
X67.136 Z4.866
X63.367 Y28.034 Z4.734
G2 X61.366 Y30.034 Z4.625 I0 J2
G1 X61.363 Y46.592 Z4.046
G2 X61.786 Y47.823 Z4 I2 J0
X63.363 Y48.593 I1.577 J-1.23 F100
G1 X65.631
X65.657
X67.735 Y48.566
X67.912 Y48.556
X69.978 Y48.345
G2 X70.421 Y48.248 I-0.203 J-1.99
G1 X71.671 Y47.822
G2 X72.162 Y47.575 I-0.646 J-1.893
G1 X73.248 Y46.825
G2 X73.693 Y46.403 I-1.136 J-1.646
G1 X74.56 Y45.283
G2 X74.812 Y44.857 I-1.582 J-1.224
G1 X75.378 Y43.556
G2 X75.509 Y43.134 I-1.834 J-0.798
G1 X75.931 Y40.93
G2 X75.965 Y40.634 I-1.964 J-0.376
G1 X76.055 Y38.387
Y38.226
X75.961 Y35.917
G2 X75.93 Y35.637 I-1.998 J0.081
G1 X75.514 Y33.367
G2 X75.411 Y33.004 I-1.967 J0.361
G1 X74.907 Y31.708
G2 X74.657 Y31.251 I-1.864 J0.724
G1 X73.839 Y30.134
G2 X73.348 Y29.66 I-1.614 J1.181
G1 X72.395 Y29.013
G2 X71.954 Y28.788 I-1.123 J1.655
G1 X70.87 Y28.394
G2 X70.453 Y28.292 I-0.683 J1.88
G1 X68.935 Y28.088
X68.825 Y28.077
X68.716 Y28.071
X67.182 Y28.035
X67.136
X63.367 Y28.034
G2 X61.366 Y30.034 I0 J2
G1 X61.363 Y46.592
G2 X61.786 Y47.823 I2 J0
G3 X61.782 Y48.075 I-0.158 J0.123
G1 X61.214 Y48.75
X61.183 Y48.78
X61.145 Y48.803
X61.104 Y48.817
X61.061 Y48.821
X60.315
X60.319 Y27.821
X67.773 Y27.823
X69.837 Y27.915
X71.703 Y28.277
X73.189 Y28.9
X74.467 Y29.829
X75.105 Y30.573
X75.715 Y31.433
X76.195 Y32.381
X76.595 Y33.368
X77.124 Y35.68
X77.272 Y38.091
X77.117 Y40.8
X76.548 Y43.36
X75.749 Y45.129
X74.584 Y46.689
X73.97 Y47.239
X73.292 Y47.736
X72.54 Y48.112
X71.771 Y48.407
X69.737 Y48.747
X67.506 Y48.823
X61.061 Y48.821
X60.315 Z3.984 F100
X60.319 Y27.821 Z3.525
X67.773 Y27.823 Z3.362
X69.837 Y27.915 Z3.316
X71.703 Y28.277 Z3.275
X73.189 Y28.9 Z3.24
X74.467 Y29.829 Z3.205
X75.105 Y30.573 Z3.184
X75.715 Y31.433 Z3.161
X76.195 Y32.381 Z3.137
X76.595 Y33.368 Z3.114
X77.124 Y35.68 Z3.062
X77.272 Y38.091 Z3.009
X77.117 Y40.8 Z2.95
X76.548 Y43.36 Z2.893
X75.749 Y45.129 Z2.85
X74.584 Y46.689 Z2.808
X73.97 Y47.239 Z2.79
X73.292 Y47.736 Z2.771
X72.54 Y48.112 Z2.753
X71.771 Y48.407 Z2.735
X69.737 Y48.747 Z2.69
X67.506 Y48.823 Z2.641
X61.061 Y48.821 Z2.5
X60.315 F100
X60.319 Y27.821
X67.773 Y27.823
X69.837 Y27.915
X71.703 Y28.277
X73.189 Y28.9
X74.467 Y29.829
X75.105 Y30.573
X75.715 Y31.433
X76.195 Y32.381
X76.595 Y33.368
X77.124 Y35.68
X77.272 Y38.091
X77.117 Y40.8
X76.548 Y43.36
X75.749 Y45.129
X74.584 Y46.689
X73.97 Y47.239
X73.292 Y47.736
X72.54 Y48.112
X71.771 Y48.407
X69.737 Y48.747
X67.506 Y48.823
X61.061 Y48.821
G3 X60.885 Y48.527 I0 J-0.2
G1 X61.335 Y47.687
G3 X61.68 Y47.673 I0.176 J0.095
G2 X63.363 Y48.593 I1.683 J-1.08
G1 X65.631
X65.657
X67.735 Y48.566
X67.912 Y48.556
X69.978 Y48.345
G2 X70.421 Y48.248 I-0.203 J-1.99
G1 X71.671 Y47.822
G2 X72.162 Y47.575 I-0.646 J-1.893
G1 X73.248 Y46.825
G2 X73.693 Y46.403 I-1.136 J-1.646
G1 X74.56 Y45.283
G2 X74.812 Y44.857 I-1.582 J-1.224
G1 X75.378 Y43.556
G2 X75.509 Y43.134 I-1.834 J-0.798
G1 X75.931 Y40.93
G2 X75.965 Y40.634 I-1.964 J-0.376
G1 X76.055 Y38.387
Y38.226
X75.961 Y35.917
G2 X75.93 Y35.637 I-1.998 J0.081
G1 X75.514 Y33.367
G2 X75.411 Y33.004 I-1.967 J0.361
G1 X74.907 Y31.708
G2 X74.657 Y31.251 I-1.864 J0.724
G1 X73.839 Y30.134
G2 X73.348 Y29.66 I-1.614 J1.181
G1 X72.395 Y29.013
G2 X71.954 Y28.788 I-1.123 J1.655
G1 X70.87 Y28.394
G2 X70.453 Y28.292 I-0.683 J1.88
G1 X68.935 Y28.088
X68.825 Y28.077
X68.716 Y28.071
X67.182 Y28.035
X67.136
X63.367 Y28.034
G2 X61.366 Y30.034 I0 J2
G1 X61.363 Y46.592
G2 X61.68 Y47.673 I2 J0
G1 X61.705 Y47.725 Z2.511
X61.719 Y47.78 Z2.523
X61.722 Y47.829 Z2.555
X61.717 Y47.877 Z2.588
X61.699 Y47.939 Z2.685
X61.689 Y47.96 Z2.8
G0 Z12
X85.403 Y34.472
G1 Z9.5 F100
X85.404 Y27.826 Z9.274
X86.452 Y27.827 Z9.238
X86.448 Y48.827 Z8.524
X85.4 Y48.826 Z8.488
X85.404 Y27.826 Z7.774
X86.452 Y27.827 Z7.738
X86.448 Y48.827 Z7.024
X85.4 Y48.826 Z6.988
X85.404 Y27.826 Z6.274
X86.452 Y27.827 Z6.238
X86.448 Y48.827 Z5.524
X85.744 Z5.5
X85.4 Y48.826 F100
X85.404 Y27.826
X86.452 Y27.827
X86.448 Y48.293
Y48.827
X85.744
X85.4 Y48.826 Z5.488 F100
X85.404 Y27.826 Z4.774
X86.452 Y27.827 Z4.738
X86.448 Y48.827 Z4.024
X85.744 Z4
X85.4 Y48.826 F100
X85.404 Y27.826
X86.452 Y27.827
X86.448 Y48.827
X85.744
X85.4 Y48.826 Z3.988 F100
X85.404 Y27.826 Z3.274
X86.452 Y27.827 Z3.238
X86.448 Y48.827 Z2.524
X85.744 Z2.5
X85.4 Y48.826 F100
X85.404 Y27.826
X86.452 Y27.827
X86.448 Y48.827
X85.744
X85.687 Y48.819 Z2.511
X85.633 Y48.801 Z2.523
X85.59 Y48.778 Z2.555
X85.552 Y48.748 Z2.588
X85.51 Y48.699 Z2.685
X85.498 Y48.679 Z2.8
G0 Z22

M9
G28 G91 Z0
G90
G28 G91 X0 Y0
G90
M5
M30
