;Sliced by ideaMaker 5.3.2.8640, 2025-12-01 15:04:40 UTC-0300
;Slicer Version: 5.3.0.8620
;Dimension: 305.000 305.000 605.000 0.400 0.400
;Plate Shape: 0
;Origin Center: 0
;Extruder Offset #1: 0.000 0.000
;Filament Diameter #1: 1.750
;Filament Diameter #2: 1.750
;Filament Compensation #1: 90.000
;Filament Compensation #2: 90.000
;Filament Density #1: 1240.000
;Filament Density #2: 1240.000
;Filament Type #1: PLA
;Filament Type #2: PLA
;Filament Name #1: [Raise3D] Premium PLA 1.75mm
;Filament Name #2: [Raise3D] Premium PLA 1.75mm
;Filament #1: PLA 1.75mm
;Filament #2: PLA 1.75mm
;Printer Type: RAISE3D Pro2 Plus
;Firmware: Raise3D Pro2
;Bounding Box: 125.382 179.402 95.934 209.948 0.000 24.320
;Model Gap: 0.150
M221 T0 S90.00
M140 S60.00
M104 T0 S205.00
M109 T0 S205.00
T0
M190 S60.00
G21
G90
M82
M107
G28 X0 Y0
G28 Z0
G1 Z15.0 F300
G92 E0
G1 F140 E29
G1 X20 Y0 F140 E30
G92 E0
G1 F6000.0
M117 Printing...
M1001
;TOTAL_NUM: 1
;PRINTING_TIME: 0
;REMAINING_TIME: 8884
M106 S0
;LAYER:-2
;Z:0.500
;HEIGHT:0.500
;PRINTING: NON-OBJECT
;PRINTING_ID: -1
G1 F2400 E-0.5000
G0 F6000 X130.770 Y106.103
G0 F300 Z0.500
;TYPE:RAFT
;WIDTH:0.800
G1 F1500 E0.0000
G1 F480 X131.116 Y105.708 E0.0873
G1 X131.496 Y105.363 E0.1727
G1 X131.913 Y105.063 E0.2581
G1 X132.981 Y104.479 E0.4605
G1 X133.376 Y104.173 E0.5436
G1 X133.720 Y103.815 E0.6262
G1 X134.006 Y103.414 E0.7081
G1 X134.477 Y102.522 E0.8759
G1 X134.870 Y101.979 E0.9873
G1 X135.216 Y101.609 E1.0716
G1 X135.503 Y101.358 E1.1350
G1 X135.915 Y101.062 E1.2193
G1 X136.385 Y100.799 E1.3089
G1 X136.854 Y100.602 E1.3935
G1 X137.511 Y100.423 E1.5067
G1 X138.023 Y100.352 E1.5927
G1 X138.447 Y100.334 E1.6633
G1 X139.487 Y100.333 E1.8362
G1 X139.967 Y100.298 E1.9163
G1 X140.452 Y100.189 E1.9989
G1 X140.916 Y100.011 E2.0816
G1 X141.347 Y99.768 E2.1639
G1 X141.741 Y99.464 E2.2466
G1 X142.090 Y99.101 E2.3304
G1 X142.547 Y98.410 E2.4681
G1 X142.872 Y97.977 E2.5582
G1 X143.227 Y97.599 E2.6444
G1 X143.494 Y97.364 E2.7036
G1 X143.915 Y97.062 E2.7897
G1 X144.387 Y96.798 E2.8797
G1 X144.857 Y96.601 E2.9644
G1 X145.350 Y96.458 E3.0498
G1 X145.858 Y96.370 E3.1355
G1 X146.442 Y96.334 E3.2328
G1 X158.331 Y96.335 E5.2100
G1 X158.992 Y96.378 E5.3201
G1 X159.505 Y96.475 E5.4070
G1 X159.852 Y96.575 E5.4670
G1 X160.324 Y96.765 E5.5516
G1 X160.786 Y97.011 E5.6387
G1 X161.347 Y97.413 E5.7534
G1 X161.722 Y97.763 E5.8387
G1 X161.965 Y98.039 E5.8999
G1 X162.266 Y98.456 E5.9854
G1 X162.591 Y98.969 E6.0864
G1 X162.917 Y99.343 E6.1689
G1 X163.293 Y99.667 E6.2515
G1 X163.713 Y99.933 E6.3341
G1 X164.166 Y100.134 E6.4166
G1 X164.650 Y100.270 E6.5002
G1 X165.294 Y100.334 E6.6078
G1 X166.347 Y100.335 E6.7829
G1 X166.835 Y100.360 E6.8642
G1 X167.365 Y100.443 E6.9534
G1 X167.855 Y100.578 E7.0379
G1 X168.334 Y100.768 E7.1236
G1 X168.927 Y101.099 E7.2365
G1 X169.221 Y101.310 E7.2967
G1 X169.613 Y101.653 E7.3833
G1 X169.966 Y102.040 E7.4705
G1 X170.353 Y102.597 E7.5832
G1 X170.851 Y103.525 E7.7584
G1 X171.158 Y103.922 E7.8419
G1 X171.516 Y104.266 E7.9244
G1 X171.920 Y104.554 E8.0069
G1 X172.474 Y104.836 E8.1103
G1 X172.938 Y105.105 E8.1995
G1 X173.217 Y105.307 E8.2568
G1 X173.726 Y105.767 E8.3709
G1 X173.969 Y106.044 E8.4322
G1 X174.269 Y106.461 E8.5176
G1 X174.592 Y107.059 E8.6306
G1 X174.727 Y107.394 E8.6907
G1 X174.873 Y107.895 E8.7775
G1 X174.962 Y108.404 E8.8634
G1 X174.994 Y108.879 E8.9426
G1 X174.998 Y110.033 E9.1345
G1 X175.033 Y110.513 E9.2145
G1 X175.142 Y110.998 E9.2972
G1 X175.320 Y111.462 E9.3798
G1 X175.563 Y111.893 E9.4621
G1 X175.867 Y112.287 E9.5449
G1 X176.230 Y112.635 E9.6285
G1 X176.930 Y113.099 E9.7682
G1 X177.348 Y113.412 E9.8550
G1 X177.727 Y113.767 E9.9414
G1 X177.967 Y114.040 E10.0018
G1 X178.272 Y114.465 E10.0888
G1 X178.528 Y114.923 E10.1761
G1 X178.731 Y115.407 E10.2633
G1 X178.873 Y115.894 E10.3477
G1 X178.961 Y116.404 E10.4338
G1 X178.997 Y116.981 E10.5299
G1 X179.002 Y132.849 E13.1688
G1 X178.977 Y133.337 E13.2500
G1 X178.921 Y133.761 E13.3211
G1 X178.805 Y134.233 E13.4020
G1 X178.637 Y134.707 E13.4856
G1 X178.403 Y135.188 E13.5746
G1 X178.129 Y135.621 E13.6598
G1 X177.805 Y136.021 E13.7454
G1 X177.427 Y136.394 E13.8337
G1 X177.018 Y136.715 E13.9202
G1 X176.262 Y137.213 E14.0707
G1 X175.896 Y137.556 E14.1541
G1 X175.587 Y137.945 E14.2367
G1 X175.339 Y138.375 E14.3193
G1 X175.156 Y138.836 E14.4018
G1 X175.041 Y139.321 E14.4847
G1 X174.999 Y139.842 E14.5716
G1 X174.992 Y152.988 E16.7578
G1 X174.952 Y153.537 E16.8493
G1 X174.890 Y153.899 E16.9104
G1 X174.752 Y154.401 E16.9970
G1 X174.564 Y154.875 E17.0818
G1 X174.317 Y155.336 E17.1688
G1 X173.913 Y155.897 E17.2837
G1 X173.566 Y156.269 E17.3683
G1 X173.290 Y156.512 E17.4295
G1 X172.864 Y156.819 E17.5168
G1 X172.358 Y157.142 E17.6166
G1 X171.983 Y157.468 E17.6993
G1 X171.660 Y157.845 E17.7818
G1 X171.396 Y158.266 E17.8645
G1 X171.195 Y158.719 E17.9469
G1 X171.062 Y159.204 E18.0305
G1 X170.999 Y159.841 E18.1370
G1 X170.995 Y172.878 E20.3050
G1 X170.952 Y173.532 E20.4140
G1 X170.857 Y174.041 E20.5001
G1 X170.699 Y174.552 E20.5891
G1 X170.488 Y175.030 E20.6760
G1 X170.320 Y175.333 E20.7336
G1 X170.019 Y175.766 E20.8213
G1 X169.672 Y176.164 E20.9091
G1 X169.285 Y176.516 E20.9961
G1 X168.864 Y176.819 E21.0824
G1 X168.358 Y177.142 E21.1822
G1 X167.983 Y177.468 E21.2648
G1 X167.660 Y177.845 E21.3474
G1 X167.396 Y178.266 E21.4300
G1 X167.195 Y178.719 E21.5124
G1 X167.062 Y179.204 E21.5961
G1 X166.999 Y179.841 E21.7025
G1 X166.995 Y192.889 E23.8724
G1 X166.969 Y193.387 E23.9553
G1 X166.889 Y193.903 E24.0422
G1 X166.752 Y194.401 E24.1281
G1 X166.564 Y194.875 E24.2129
G1 X166.314 Y195.341 E24.3008
G1 X166.019 Y195.766 E24.3869
G1 X165.672 Y196.164 E24.4747
G1 X165.285 Y196.516 E24.5617
G1 X164.862 Y196.821 E24.6484
G1 X164.381 Y197.123 E24.7428
G1 X164.004 Y197.445 E24.8253
G1 X163.677 Y197.819 E24.9079
G1 X163.409 Y198.236 E24.9903
G1 X163.203 Y198.689 E25.0731
G1 X163.066 Y199.172 E25.1566
G1 X162.996 Y199.839 E25.2681
G1 X162.995 Y200.892 E25.4432
G1 X162.970 Y201.379 E25.5243
G1 X162.857 Y202.040 E25.6359
G1 X162.695 Y202.563 E25.7269
G1 X162.566 Y202.873 E25.7827
G1 X162.232 Y203.469 E25.8964
G1 X161.914 Y203.896 E25.9849
G1 X161.675 Y204.162 E26.0444
G1 X161.290 Y204.511 E26.1308
G1 X160.727 Y204.902 E26.2448
G1 X159.805 Y205.396 E26.4187
G1 X159.408 Y205.703 E26.5022
G1 X159.064 Y206.061 E26.5848
G1 X158.778 Y206.462 E26.6667
G1 X158.305 Y207.357 E26.8350
G1 X158.017 Y207.771 E26.9189
G1 X157.563 Y208.272 E27.0313
G1 X157.290 Y208.512 E27.0918
G1 X156.869 Y208.814 E27.1779
G1 X156.271 Y209.137 E27.2910
G1 X155.930 Y209.274 E27.3521
G1 X155.434 Y209.418 E27.4380
G1 X154.912 Y209.508 E27.5260
G1 X154.351 Y209.542 E27.6195
G1 X150.507 Y209.548 E28.2588
G1 X149.977 Y209.522 E28.3470
G1 X149.493 Y209.451 E28.4284
G1 X148.932 Y209.300 E28.5250
G1 X148.442 Y209.105 E28.6127
G1 X147.988 Y208.860 E28.6985
G1 X147.693 Y208.666 E28.7572
G1 X147.284 Y208.330 E28.8452
G1 X146.914 Y207.950 E28.9334
G1 X146.607 Y207.555 E29.0166
G1 X146.328 Y207.096 E29.1059
G1 X145.982 Y206.420 E29.2322
G1 X145.687 Y206.018 E29.3152
G1 X145.336 Y205.666 E29.3978
G1 X144.939 Y205.367 E29.4805
G1 X143.980 Y204.856 E29.6612
G1 X143.432 Y204.460 E29.7736
G1 X143.057 Y204.109 E29.8590
G1 X142.821 Y203.841 E29.9184
G1 X142.429 Y203.274 E30.0331
G1 X142.198 Y202.829 E30.1164
G1 X142.004 Y202.322 E30.2067
G1 X141.876 Y201.812 E30.2942
G1 X141.805 Y201.307 E30.3790
G1 X141.787 Y200.881 E30.4499
G1 X141.785 Y195.843 E31.2877
G1 X141.750 Y195.363 E31.3677
G1 X141.642 Y194.878 E31.4504
G1 X141.464 Y194.415 E31.5329
G1 X141.222 Y193.982 E31.6154
G1 X140.918 Y193.588 E31.6981
G1 X140.555 Y193.240 E31.7817
G1 X139.850 Y192.772 E31.9225
G1 X139.437 Y192.464 E32.0081
G1 X139.064 Y192.114 E32.0932
G1 X138.716 Y191.704 E32.1826
G1 X138.438 Y191.288 E32.2658
G1 X138.193 Y190.817 E32.3541
G1 X138.056 Y190.476 E32.4152
G1 X137.912 Y189.982 E32.5008
G1 X137.823 Y189.472 E32.5869
G1 X137.788 Y188.898 E32.6825
G1 X137.784 Y175.843 E34.8536
G1 X137.749 Y175.363 E34.9336
G1 X137.641 Y174.878 E35.0163
G1 X137.463 Y174.415 E35.0988
G1 X137.220 Y173.982 E35.1813
G1 X136.917 Y173.589 E35.2639
G1 X136.555 Y173.240 E35.3475
G1 X135.855 Y172.777 E35.4871
G1 X135.437 Y172.464 E35.5739
G1 X135.058 Y172.109 E35.6603
G1 X134.818 Y171.836 E35.7207
G1 X134.513 Y171.411 E35.8077
G1 X134.257 Y170.953 E35.8950
G1 X134.005 Y170.325 E36.0075
G1 X133.913 Y169.985 E36.0661
G1 X133.823 Y169.472 E36.1527
G1 X133.788 Y168.898 E36.2483
G1 X133.784 Y155.843 E38.4194
G1 X133.749 Y155.363 E38.4994
G1 X133.641 Y154.878 E38.5820
G1 X133.463 Y154.415 E38.6645
G1 X133.220 Y153.982 E38.7471
G1 X132.917 Y153.589 E38.8296
G1 X132.556 Y153.242 E38.9129
G1 X131.558 Y152.561 E39.1138
G1 X131.162 Y152.214 E39.2014
G1 X130.814 Y151.831 E39.2874
G1 X130.513 Y151.411 E39.3734
G1 X130.257 Y150.953 E39.4606
G1 X130.054 Y150.469 E39.5479
G1 X129.912 Y149.982 E39.6323
G1 X129.823 Y149.472 E39.7184
G1 X129.788 Y148.898 E39.8140
G1 X129.784 Y135.843 E41.9851
G1 X129.749 Y135.363 E42.0651
G1 X129.641 Y134.878 E42.1477
G1 X129.463 Y134.415 E42.2302
G1 X129.220 Y133.982 E42.3128
G1 X128.917 Y133.589 E42.3953
G1 X128.555 Y133.240 E42.4789
G1 X127.855 Y132.777 E42.6185
G1 X127.437 Y132.464 E42.7053
G1 X127.064 Y132.114 E42.7904
G1 X126.716 Y131.704 E42.8798
G1 X126.438 Y131.288 E42.9631
G1 X126.197 Y130.825 E43.0499
G1 X126.007 Y130.327 E43.1385
G1 X125.877 Y129.812 E43.2268
G1 X125.806 Y129.307 E43.3116
G1 X125.788 Y128.883 E43.3822
G1 X125.782 Y117.023 E45.3545
G1 X125.822 Y116.388 E45.4603
G1 X125.875 Y116.050 E45.5172
G1 X126.040 Y115.452 E45.6204
G1 X126.233 Y114.973 E45.7063
G1 X126.476 Y114.524 E45.7912
G1 X126.772 Y114.101 E45.8770
G1 X127.119 Y113.705 E45.9646
G1 X127.505 Y113.356 E46.0511
G1 X127.806 Y113.132 E46.1135
G1 X128.492 Y112.689 E46.2493
G1 X128.862 Y112.350 E46.3328
G1 X129.175 Y111.965 E46.4153
G1 X129.430 Y111.539 E46.4979
G1 X129.618 Y111.079 E46.5805
G1 X129.740 Y110.597 E46.6632
G1 X129.788 Y110.036 E46.7568
G1 X129.789 Y108.984 E46.9318
G1 X129.814 Y108.496 E47.0131
G1 X129.897 Y107.966 E47.1023
G1 X130.034 Y107.470 E47.1878
G1 X130.223 Y106.996 E47.2727
G1 X130.472 Y106.532 E47.3603
G1 X130.770 Y106.103 E47.4471
G1 F2400 E46.9471
G0 F6000 X127.260 Y114.090
G1 F1500 E47.4471
G1 F480 X127.260 Y131.788 E50.3903
G0 F6000 X129.684 Y134.073
G1 F480 X129.684 Y111.815 E54.0918
G1 F2400 E53.5918
G0 F6000 X132.108 Y105.367
G1 F1500 E54.0918
G1 F480 X132.108 Y152.501 E61.9303
G1 F2400 E61.4303
G0 F6000 X134.532 Y170.670
G1 F1500 E61.9303
G1 F480 X134.532 Y103.188 E73.1526
G0 F6000 X136.956 Y100.950
G1 F480 X136.956 Y173.127 E85.1557
G1 F2400 E84.6557
G0 F6000 X139.380 Y191.916
G1 F1500 E85.1557
G1 F480 X139.380 Y100.694 E100.3259
G0 F6000 X141.804 Y99.870
G1 F480 X141.804 Y194.295 E116.0289
G1 F2400 E115.5289
G0 F6000 X144.228 Y204.580
G1 F1500 E116.0289
G1 F480 X144.228 Y97.299 E133.8698
G0 F6000 X146.652 Y96.695
G1 F480 X146.652 Y206.936 E152.2029
G0 F6000 X149.076 Y208.966
G1 F480 X149.076 Y96.695 E170.8737
G0 F6000 X151.500 Y96.695
G1 F480 X151.500 Y209.187 E189.5812
G0 F6000 X153.924 Y209.183
G1 F480 X153.924 Y96.695 E208.2880
G0 F6000 X156.348 Y96.695
G1 F480 X156.348 Y208.686 E226.9122
G0 F6000 X158.772 Y205.850
G1 F480 X158.772 Y96.724 E245.0599
G0 F6000 X161.196 Y97.765
G1 F480 X161.196 Y204.110 E262.7451
G1 F2400 E262.2451
G0 F6000 X163.620 Y197.337
G1 F1500 E262.7451
G1 F480 X163.620 Y100.286 E278.8848
G0 F6000 X166.044 Y100.695
G1 F480 X166.044 Y195.084 E294.5817
G1 F2400 E294.0817
G0 F6000 X168.468 Y176.645
G1 F1500 E294.5817
G1 F480 X168.468 Y101.256 E307.1190
G0 F6000 X170.892 Y104.165
G1 F480 X170.892 Y158.515 E316.1574
G0 F6000 X173.316 Y156.010
G1 F480 X173.316 Y105.882 E324.4938
G1 F2400 E323.9938
G0 F6000 X175.740 Y112.664
G1 F1500 E324.4938
G1 F480 X175.740 Y137.208 E328.5754
G0 F6000 X178.164 Y134.857
G1 F480 X178.164 Y115.009 E331.8762
;PRINTING_TIME: 255
;REMAINING_TIME: 8629
M106 S255
;LAYER:-2
;Z:1.000
;HEIGHT:0.500
;PRINTING: NON-OBJECT
;PRINTING_ID: -1
G0 F300 Z1.000
G0 F6000 X178.528 Y114.923
;TYPE:RAFT
;WIDTH:0.800
G1 F960 X178.731 Y115.407 E331.9635
G1 X178.873 Y115.894 E332.0478
G1 X178.961 Y116.404 E332.1339
G1 X178.997 Y116.981 E332.2300
G1 X179.002 Y132.849 E334.8689
G1 X178.977 Y133.337 E334.9501
G1 X178.921 Y133.761 E335.0213
G1 X178.805 Y134.233 E335.1021
G1 X178.637 Y134.707 E335.1857
G1 X178.403 Y135.188 E335.2747
G1 X178.129 Y135.621 E335.3599
G1 X177.805 Y136.021 E335.4455
G1 X177.427 Y136.394 E335.5338
G1 X177.018 Y136.715 E335.6203
G1 X176.262 Y137.213 E335.7708
G1 X175.896 Y137.556 E335.8542
G1 X175.587 Y137.945 E335.9369
G1 X175.339 Y138.375 E336.0194
G1 X175.156 Y138.836 E336.1019
G1 X175.041 Y139.321 E336.1848
G1 X174.999 Y139.842 E336.2717
G1 X174.992 Y152.988 E338.4579
G1 X174.952 Y153.537 E338.5494
G1 X174.890 Y153.899 E338.6105
G1 X174.752 Y154.401 E338.6971
G1 X174.564 Y154.875 E338.7819
G1 X174.317 Y155.336 E338.8689
G1 X173.913 Y155.897 E338.9838
G1 X173.566 Y156.269 E339.0684
G1 X173.290 Y156.512 E339.1296
G1 X172.864 Y156.819 E339.2169
G1 X172.358 Y157.142 E339.3168
G1 X171.983 Y157.468 E339.3994
G1 X171.660 Y157.845 E339.4819
G1 X171.396 Y158.266 E339.5646
G1 X171.195 Y158.719 E339.6470
G1 X171.062 Y159.204 E339.7306
G1 X170.999 Y159.841 E339.8371
G1 X170.995 Y172.878 E342.0051
G1 X170.952 Y173.532 E342.1141
G1 X170.857 Y174.041 E342.2003
G1 X170.699 Y174.552 E342.2892
G1 X170.488 Y175.030 E342.3761
G1 X170.320 Y175.333 E342.4337
G1 X170.019 Y175.766 E342.5214
G1 X169.672 Y176.164 E342.6092
G1 X169.285 Y176.516 E342.6962
G1 X168.864 Y176.819 E342.7825
G1 X168.358 Y177.142 E342.8823
G1 X167.983 Y177.468 E342.9649
G1 X167.660 Y177.845 E343.0475
G1 X167.396 Y178.266 E343.1301
G1 X167.195 Y178.719 E343.2126
G1 X167.062 Y179.204 E343.2962
G1 X166.999 Y179.841 E343.4026
G1 X166.995 Y192.889 E345.5725
G1 X166.969 Y193.387 E345.6555
G1 X166.889 Y193.903 E345.7423
G1 X166.752 Y194.401 E345.8282
G1 X166.564 Y194.875 E345.9130
G1 X166.314 Y195.341 E346.0009
G1 X166.019 Y195.766 E346.0870
G1 X165.672 Y196.164 E346.1748
G1 X165.285 Y196.516 E346.2618
G1 X164.862 Y196.821 E346.3485
G1 X164.381 Y197.123 E346.4430
G1 X164.004 Y197.445 E346.5254
G1 X163.677 Y197.819 E346.6080
G1 X163.409 Y198.236 E346.6905
G1 X163.203 Y198.689 E346.7732
G1 X163.066 Y199.172 E346.8567
G1 X162.996 Y199.839 E346.9682
G1 X162.995 Y200.892 E347.1434
G1 X162.970 Y201.379 E347.2245
G1 X162.857 Y202.040 E347.3360
G1 X162.695 Y202.563 E347.4270
G1 X162.566 Y202.873 E347.4829
G1 X162.232 Y203.469 E347.5965
G1 X161.914 Y203.896 E347.6850
G1 X161.675 Y204.162 E347.7445
G1 X161.290 Y204.511 E347.8309
G1 X160.727 Y204.902 E347.9449
G1 X159.805 Y205.396 E348.1188
G1 X159.408 Y205.703 E348.2023
G1 X159.064 Y206.061 E348.2849
G1 X158.778 Y206.462 E348.3668
G1 X158.305 Y207.357 E348.5351
G1 X158.017 Y207.771 E348.6190
G1 X157.563 Y208.272 E348.7314
G1 X157.290 Y208.512 E348.7919
G1 X156.869 Y208.814 E348.8780
G1 X156.271 Y209.137 E348.9911
G1 X155.930 Y209.274 E349.0522
G1 X155.434 Y209.418 E349.1381
G1 X154.912 Y209.508 E349.2262
G1 X154.351 Y209.542 E349.3196
G1 X150.507 Y209.548 E349.9589
G1 X149.977 Y209.522 E350.0471
G1 X149.493 Y209.451 E350.1285
G1 X148.932 Y209.300 E350.2251
G1 X148.442 Y209.105 E350.3128
G1 X147.988 Y208.860 E350.3986
G1 X147.693 Y208.666 E350.4573
G1 X147.284 Y208.330 E350.5453
G1 X146.914 Y207.950 E350.6335
G1 X146.607 Y207.555 E350.7167
G1 X146.328 Y207.096 E350.8061
G1 X145.982 Y206.420 E350.9324
G1 X145.687 Y206.018 E351.0153
G1 X145.336 Y205.666 E351.0979
G1 X144.939 Y205.367 E351.1806
G1 X143.980 Y204.856 E351.3613
G1 X143.432 Y204.460 E351.4737
G1 X143.057 Y204.109 E351.5592
G1 X142.821 Y203.841 E351.6186
G1 X142.429 Y203.274 E351.7332
G1 X142.198 Y202.829 E351.8166
G1 X142.004 Y202.322 E351.9068
G1 X141.876 Y201.812 E351.9943
G1 X141.805 Y201.307 E352.0791
G1 X141.787 Y200.881 E352.1500
G1 X141.785 Y195.843 E352.9878
G1 X141.750 Y195.363 E353.0679
G1 X141.642 Y194.878 E353.1505
G1 X141.464 Y194.415 E353.2330
G1 X141.222 Y193.982 E353.3155
G1 X140.918 Y193.588 E353.3982
G1 X140.555 Y193.240 E353.4819
G1 X139.850 Y192.772 E353.6226
G1 X139.437 Y192.464 E353.7083
